X:1090
T:The Merry Blacksmith
T:Paddy on the Railroad
T:Paddy on the Handcar
M:C|
L:1/8
K:D
|:d2 dA BAFA|ABdA BAFA|ABde f2ed|Beed egfe|
|d2 dA BAFA|ABdA BAFA|ABde fdec|dBAF D2:|
|:a2 ag f2 fe|d2 dA BAFA|ABde fded|Beed egfe|
| a2 ag f2 fe|d2 dA BAFA|ABde fdec|dBAF D2:|
